packages/icons/src/svg/file-xml-o.svg

<svg xmlns="http://www.w3.org/2000/svg" viewBox="0 0 32 32">
	<path class="ti-file" d="M22 0H6v14h2V2h11v10h11v18H8v-2H6v4h26V10zm-1 10V2l8 8z"/>
	<path class="ti-file-xml-o-badge" d="M8 15H0v12h26V15zM7 25l-1-2-1 2H3l2-4-2-4h2l1 2 1-2h2l-2 4 2 4zm11 0h-2v-4l-2 3-2-3v4h-2v-8h2l2 4 2-4h2zm6 0h-5v-8h2v6h3z"/>
</svg>

<svg xmlns="http://www.w3.org/2000/svg" viewBox="0 0 32 32">
  <path class="ti-file" d="M22,0H6V14H8V2H19V12H30V30H8V28H6v4H32V10ZM21,10V2l8,8Z"/>
  <path class="ti-file-xml-o-badge" d="M8,15H0V27H26V15ZM7,25,6,23,5,25H3l2-4L3,17H5l1,2,1-2H9L7,21l2,4Zm11,0H16V21l-2,3-2-3v4H10V17h2l2,4,2-4h2Zm6,0H19V17h2v6h3Z"/>
</svg>
